src/assets/filled/ReceiptEdit.svg

<?xml version="1.0" encoding="UTF-8"?>
<svg width="24" height="24" viewBox="0 0 24 24" xmlns="http://www.w3.org/2000/svg">
 <path d="m15.78 2h-7.56c-3.78 0-4.72 1.01-4.72 5.04v11.26c0 2.66 1.46 3.29 3.23 1.39l0.01-0.01c0.82-0.87 2.07-0.8 2.78 0.15l1.01 1.35c0.81 1.07 2.12 1.07 2.93 0l1.01-1.35c0.72-0.96 1.97-1.03 2.79-0.15 1.78 1.9 3.23 1.27 3.23-1.39v-11.25c0.01-4.03-0.93-5.04-4.71-5.04zm-0.94 7.99-0.5 0.51h-0.01l-3.03 3.03c-0.13 0.13-0.4 0.27-0.59 0.29l-1.35 0.2c-0.49 0.07-0.83-0.28-0.76-0.76l0.19-1.36c0.03-0.19 0.16-0.45 0.29-0.59l3.04-3.03 0.5-0.51c0.33-0.33 0.7-0.57 1.1-0.57 0.34 0 0.71 0.16 1.12 0.57 0.9 0.9 0.61 1.61 0 2.22z"/>
</svg>

<svg width="24" height="24" viewBox="0 0 24 24"  xmlns="http://www.w3.org/2000/svg">
<path d="M15.78 2H8.22C4.44 2 3.5 3.01 3.5 7.04V18.3C3.5 20.96 4.96 21.59 6.73 19.69L6.74 19.68C7.56 18.81 8.81 18.88 9.52 19.83L10.53 21.18C11.34 22.25 12.65 22.25 13.46 21.18L14.47 19.83C15.19 18.87 16.44 18.8 17.26 19.68C19.04 21.58 20.49 20.95 20.49 18.29V7.04C20.5 3.01 19.56 2 15.78 2ZM14.84 9.99L14.34 10.5H14.33L11.3 13.53C11.17 13.66 10.9 13.8 10.71 13.82L9.36 14.02C8.87 14.09 8.53 13.74 8.6 13.26L8.79 11.9C8.82 11.71 8.95 11.45 9.08 11.31L12.12 8.28L12.62 7.77C12.95 7.44 13.32 7.2 13.72 7.2C14.06 7.2 14.43 7.36 14.84 7.77C15.74 8.67 15.45 9.38 14.84 9.99Z" />
</svg>
